!!!OTL: 59. Skotshne
!!!Genre:	Skotshne
!!!Mode:	Altered Dorian
!!!Listening/dance:	listening
!!!One_Mode:	yes
**kern
*I"P1
*clefG2
*k[b-]
*g:dor
*M2/4
*>A
=1
8dL
8gJ
8dL
8gJ
=2
8dL
8gJ
16b-LL
16aJ
8gJ
=3
16b-LL
16aJ
8gJ
8aL
8b-J
=4
(16cc#XLL
16eeJJ)
4dd
8r
=5
8dL
8gJ
8dL
8gJ
=6
8dL
8gJ
16b-LL
16aJ
8gJ
=7
16b-LL
16aJ
8gJ
8aL
8b-J
*>A1
=8
(16aLL
16b-JJ
4.g)
*>A2
=:|!
(16aLL
16b-JJ
4g)
=9||
*>B
8dd
=10
8cc#XL
8ddJ
8eeL
8ffJ
=11
(8qff/
8ee)
4.dd
=12
(8qee/
8dd)
4.cc#X
=13
8cc#X
4.b-
=14
(16ffLL
16eeJ
8ddJ)
(16ddLL
16ccnJ
8b-J)
=15
(16ddLL
16ccnJ
8b-J)
(16b-LL
16aJ)
8gJ
=16
2g
=17
4.gg
8dd
=18
8cc#XL
8ddJ
8eeL
8ffJ
=19
8ee
4.aa
=20
8ggL
8ffJ
8eeL
8ddJ
=21
8cc#X
4.b-
=22
16ffLL
16eeJ
8ddJ
16ddLL
16ccnJ
8b-J
=23
16ddLL
16ccnJ
8b-J
16b-LL
16aJ
8gJ
=24
2g
=25
4G
4r
=26||
*>C
8ddL
8gJ
8aL
8b-J
=27
8ccnL
8b-J
8aL
8gJ
=28
8b-L
8aJ
8b-L
8ccnJ
=29
2dd
=30
8ffL
8eeJ
8ddL
8cc#XJ
=31
8ddL
8cc#J
8ddL
8eeJ
=32
8ffL
8eeJ
8ddL
8cc#XJ
=33
2dd
=34
8cc#XL
8ddJ
8eeL
8ffJ
=35
8ee
4.aa
=36
8ggL
8ffJ
8eeL
8ddJ
=37
8cc#X
4.b-
=38
(16ffLL
16eeJ
8ddJ)
(16ddLL
16cc#XJ
8b-J)
=39
(16ddLL
16ccnJ
8b-J)
(16b-LL
16aJ
8gJ)
=40
2g
=41
4G
4r
==
*-
